public/images/icons/32x32/sport_32_white.svg

<svg height="32" viewBox="0 0 32 32" width="32" xmlns="http://www.w3.org/2000/svg"><g fill="#fff" stroke="#fff" stroke-width=".3" transform="translate(6 6.022)"><path d="m10 19.9618552c-1.88665158 0-3.72552036-.5340724-5.31773756-1.5444796-.21099547-.1338914-.27352941-.4135294-.13959276-.6245249.13389141-.2109955.41352942-.2734842.62447964-.1395928 1.44701358.9182353 3.11819005 1.4036199 4.83289588 1.4036199 4.9939819 0 9.0568779-4.0628959 9.0568779-9.0568778 0-2.49054299-.9971946-4.81479638-2.8078733-6.54470588-.1806788-.17257919-.1872398-.45904978-.0145702-.63972851.1726245-.18072398.4590951-.18723982.6397738-.01461538.9645701.92158371 1.7237104 2.00502262 2.2561991 3.22018099.5516742 1.25909502.831448 2.59773756.831448 3.97886878 0 5.4930317-4.4689141 9.9618552-9.9619005 9.9618552zm-6.82488688-2.8989593c-.11850679 0-.23678733-.0461991-.32556561-.1382353l-.03208145-.0332126c-.17316742-.1801358-.16751131-.4666064.01257919-.639819.18018099-.1732127.46660633-.1675114.639819.0125791l.03076923.0319005c.17357466.179819.16855204.4662896-.01126696.639819-.08782806.0847964-.20113123.1269683-.3142534.1269683zm-1.39162896-1.8331674c-.15556561 0-.30692307-.0802262-.39113122-.2242534-.88597285-1.5160181-1.35420814-3.2468778-1.35420814-5.0054751 0-5.49303167 4.46886877-9.9618552 9.9618552-9.9618552.940543 0 1.8723077.13212669 2.7693213.39276018.24.0697285.378009.32081448.3082805.56081448-.0696832.23995475-.3208145.3779638-.5607692.30828054-.8149321-.23674208-1.6617647-.35683258-2.5168326-.35683258-4.9939819 0-9.05687783 4.06289593-9.05687783 9.05687778 0 1.5982806.42552036 3.171267 1.23058824 4.5488688.12610859.2157919.05343891.492896-.16235294.6190046-.07176471.0419004-.15036199.0618099-.22787331.0618099zm12.97438914-13.00511312c-.0772398 0-.1555204-.019819-.2270588-.06140271l-.0370136-.02140272c-.2166516-.12447963-.2913575-.40108597-.1668778-.61773755.1245249-.21674208.4009955-.29135747.6177828-.16687783l.041086.02375566c.2160181.12561086.2893212.40257918.1636651.61864253-.0840271.14438914-.2356561.22502262-.3915837.22502262z"/><path d="m9.99963801 10.4524887c-.09542987 0-.19162896-.0300453-.27348416-.0922625-1.41316742-1.07416285-2.38076923-2.55466059-2.87579186-4.4002262-.2740724-1.01809955-.41307692-2.09067873-.41307692-3.18755656 0-1.03031674.1258371-1.69904977.13117647-1.72701358.04705882-.24547511.28429864-.40633484.52954751-.35923076.24524887.04701357.40606335.28375565.35936652.52900452-.00113123.0061086-.11515838.619819-.11515838 1.55723982 0 1.01746606.12855204 2.01085973.3820362 2.95271493.44199095 1.64773756 1.29968326 2.96466063 2.54945701 3.91461539.198914.15126696.2376471.43511314.0864253.63407244-.0889592.117104-.2239366.1786425-.36049769.1786425z"/><path d="m19.2299548 12.4427602c-.1086878 0-.2177376-.0388688-.3044344-.1178281-.0379638-.0342986-2.7390951-2.44303165-6.0954752-2.44303165-.9158371 0-1.8090497.18004525-2.6549321.53524885-.23054296.0967421-.49561084-.0116289-.59239817-.2420362-.09674208-.23040722.01162896-.49561084.2420362-.59239817.95733027-.40199095 1.96850677-.6058371 3.00529407-.6058371 3.7208145 0 6.5846607 2.56941177 6.7047059 2.67882357.1847512.1682805.1981448.4544796.029819.6392307-.0892307.0980996-.2117194.1478281-.3346153.1478281z"/><path d="m3.84538462 17.4202715c-.19085973 0-.3683258-.1216742-.430362-.3130769-.07696832-.2375566.05303168-.4925792.29045249-.569819.01325792-.0043439 1.33986426-.4444797 2.72036199-1.4873304 1.81683258-1.3725791 2.86837104-3.0909049 3.12524887-5.10723977.03158371-.24791855.2582353-.42334842.50606333-.39167421.2479186.03158371.4232579.2581448.391629.50606338-.2860181 2.2449321-1.49701359 4.2276018-3.50212672 5.7335746-1.49918552 1.1259729-2.90262443 1.5882353-2.96162896 1.6073303-.04633484.0150227-.09339366.022172-.139638.022172zm14.83380088-10.85597286c-.0639819 0-.1290045-.01366516-.1908145-.04244344-1.7615837-.82095022-3.6808144-1.23714932-5.7043439-1.23714932-3.06239814 0-5.29266963.96266969-5.31484158.97239819-.22882353.10040724-.49574661-.00375565-.5961086-.23262443-.10040724-.22886878.00375566-.49574661.23262444-.59615385.09760181-.04280543 2.42814479-1.04864253 5.67832574-1.04864253 2.1566064 0 4.2044344.44470588 6.0866064 1.3218552.2265158.10552036.3245701.37475113.2190498.60126697-.0767874.16470588-.2400905.26144796-.4104978.26149321zm-9.65475111 13.34764706c-.14257919 0-.28294118-.0672398-.37099548-.1929412-.14334841-.2046606-.09366515-.4868326.11099548-.6302262 2.62841631-1.8412217 4.04954751-4.3072398 4.77886881-6.0517647.790362-1.8904978.9578733-3.3450679.959457-3.35954754.027466-.24837104.2514932-.42760181.499457-.40004525.248371.02746607.4274661.25108598.4000452.49945702-.007104.06438914-.1839366 1.59972847-1.0240271 3.60923077-.7754751 1.8547964-2.2887783 4.4784163-5.09461539 6.4438914-.07895928.0553846-.16950226.0819457-.25918552.0819457z"/><path d="m7.75556561 14.8786425c-.09298642 0-.18674208-.0285973-.26742081-.0878733-.05217195-.038371-1.29330317-.959457-2.61334842-2.6919909-1.21850679-1.5991855-2.73375566-4.22180997-3.03298643-7.63425341-.02180995-.24895928.1623077-.46850679.41126697-.49031675.24895928-.0218552.46846154.1623077.4902715.41126697.27918552 3.1839819 1.69443439 5.64027149 2.83257918 7.14022629 1.24266969 1.637647 2.43669683 2.5273755 2.44859729 2.5361991.20090497.1482805.2438914.4314479.0957466.6325339-.08868778.1204072-.22579185.1842081-.36470588.1842081z"/></g></svg>

<svg xmlns="http://www.w3.org/2000/svg" width="32" height="32" viewBox="0 0 32 32">
  <g fill="#FFF" stroke="#FFF" stroke-width=".3" transform="translate(6 6.022)">
    <path d="M10,19.9618552 C8.11334842,19.9618552 6.27447964,19.4277828 4.68226244,18.4173756 C4.47126697,18.2834842 4.40873303,18.0038462 4.54266968,17.7928507 C4.67656109,17.5818552 4.9561991,17.5193665 5.16714932,17.6532579 C6.6141629,18.5714932 8.28533937,19.0568778 10.0000452,19.0568778 C14.9940271,19.0568778 19.0569231,14.9939819 19.0569231,10 C19.0569231,7.50945701 18.0597285,5.18520362 16.2490498,3.45529412 C16.068371,3.28271493 16.06181,2.99624434 16.2344796,2.81556561 C16.4071041,2.63484163 16.6935747,2.62832579 16.8742534,2.80095023 C17.8388235,3.72253394 18.5979638,4.80597285 19.1304525,6.02113122 C19.6821267,7.28022624 19.9619005,8.61886878 19.9619005,10 C19.9619005,15.4930317 15.4929864,19.9618552 10,19.9618552 Z M3.17511312,17.0628959 C3.05660633,17.0628959 2.93832579,17.0166968 2.84954751,16.9246606 L2.81746606,16.891448 C2.64429864,16.7113122 2.64995475,16.4248416 2.83004525,16.251629 C3.01022624,16.0784163 3.29665158,16.0841176 3.46986425,16.2642081 L3.50063348,16.2961086 C3.67420814,16.4759276 3.66918552,16.7623982 3.48936652,16.9359276 C3.40153846,17.020724 3.28823529,17.0628959 3.17511312,17.0628959 Z M1.78348416,15.2297285 C1.62791855,15.2297285 1.47656109,15.1495023 1.39235294,15.0054751 C0.50638009,13.489457 0.0381447964,11.7585973 0.0381447964,10 C0.0381447964,4.50696833 4.50701357,0.0381447964 10,0.0381447964 C10.940543,0.0381447964 11.8723077,0.170271493 12.7693213,0.430904977 C13.0093213,0.500633484 13.1473303,0.751719457 13.0776018,0.991719457 C13.0079186,1.23167421 12.7567873,1.36968326 12.5168326,1.3 C11.7019005,1.06325792 10.8550679,0.943167421 10,0.943167421 C5.0060181,0.943167421 0.943122172,5.00606335 0.943122172,10.0000452 C0.943122172,11.5983258 1.36864253,13.1713122 2.17371041,14.548914 C2.299819,14.7647059 2.22714932,15.04181 2.01135747,15.1679186 C1.93959276,15.209819 1.86099548,15.2297285 1.78348416,15.2297285 Z M14.7578733,2.22461538 C14.6806335,2.22461538 14.6023529,2.20479638 14.5308145,2.16321267 L14.4938009,2.14180995 C14.2771493,2.01733032 14.2024434,1.74072398 14.3269231,1.5240724 C14.451448,1.30733032 14.7279186,1.23271493 14.9447059,1.35719457 L14.9857919,1.38095023 C15.20181,1.50656109 15.2751131,1.78352941 15.149457,1.99959276 C15.0654299,2.1439819 14.9138009,2.22461538 14.7578733,2.22461538 Z"/>
    <path d="M9.99963801,10.4524887 C9.90420814,10.4524887 9.80800905,10.4224434 9.72615385,10.3602262 C8.31298643,9.28606335 7.34538462,7.80556561 6.85036199,5.96 C6.57628959,4.94190045 6.43728507,3.86932127 6.43728507,2.77244344 C6.43728507,1.7421267 6.56312217,1.07339367 6.56846154,1.04542986 C6.61552036,0.799954751 6.85276018,0.639095023 7.09800905,0.686199095 C7.34325792,0.73321267 7.5040724,0.969954751 7.45737557,1.21520362 L7.45737557,1.21520362 C7.45624434,1.22131222 7.34221719,1.83502262 7.34221719,2.77244344 C7.34221719,3.7899095 7.47076923,4.78330317 7.72425339,5.72515837 C8.16624434,7.37289593 9.02393665,8.689819 10.2737104,9.63977376 C10.4726244,9.79104072 10.5113575,10.0748869 10.3601357,10.2738462 C10.2711765,10.3909502 10.1361991,10.4524887 9.99963801,10.4524887 Z"/>
    <path d="M19.2299548,12.4427602 C19.121267,12.4427602 19.0122172,12.4038914 18.9255204,12.3249321 C18.8875566,12.2906335 16.1864253,9.88190045 12.8300452,9.88190045 C11.9142081,9.88190045 11.0209955,10.0619457 10.1751131,10.4171493 C9.94457014,10.5138914 9.67950226,10.4055204 9.58271493,10.1751131 C9.48597285,9.94470588 9.59434389,9.67950226 9.82475113,9.58271493 C10.7820814,9.18072398 11.7932579,8.97687783 12.8300452,8.97687783 C16.5508597,8.97687783 19.4147059,11.5462896 19.5347511,11.6557014 C19.7195023,11.8239819 19.7328959,12.110181 19.5645701,12.2949321 C19.4753394,12.3930317 19.3528507,12.4427602 19.2299548,12.4427602 Z"/>
    <path d="M3.84538462 17.4202715C3.65452489 17.4202715 3.47705882 17.2985973 3.41502262 17.1071946 3.3380543 16.869638 3.4680543 16.6146154 3.70547511 16.5373756L3.70547511 16.5373756C3.71873303 16.5330317 5.04533937 16.0928959 6.4258371 15.0500452 8.24266968 13.6774661 9.29420814 11.9591403 9.55108597 9.94280543 9.58266968 9.69488688 9.80932127 9.51945701 10.0571493 9.55113122 10.3050679 9.58271493 10.4804072 9.80927602 10.4487783 10.0571946 10.1627602 12.3021267 8.95176471 14.2847964 6.94665158 15.7907692 5.44746606 16.9167421 4.04402715 17.3790045 3.98502262 17.3980995 3.93868778 17.4131222 3.89162896 17.4202715 3.84538462 17.4202715zM18.6791855 6.56429864C18.6152036 6.56429864 18.550181 6.55063348 18.488371 6.5218552 16.7267873 5.70090498 14.8075566 5.28470588 12.7840271 5.28470588 9.72162896 5.28470588 7.49135747 6.24737557 7.46918552 6.25710407 7.24036199 6.35751131 6.97343891 6.25334842 6.87307692 6.02447964 6.77266968 5.79561086 6.87683258 5.52873303 7.10570136 5.42832579 7.20330317 5.38552036 9.53384615 4.37968326 12.7840271 4.37968326 14.9406335 4.37968326 16.9884615 4.82438914 18.8706335 5.70153846 19.0971493 5.80705882 19.1952036 6.07628959 19.0896833 6.30280543 19.0128959 6.46751131 18.8495928 6.56425339 18.6791855 6.56429864zM9.02443439 19.9119457C8.8818552 19.9119457 8.74149321 19.8447059 8.65343891 19.7190045 8.5100905 19.5143439 8.55977376 19.2321719 8.76443439 19.0887783 11.3928507 17.2475566 12.8139819 14.7815385 13.5433032 13.0370136 14.3336652 11.1465158 14.5011765 9.6919457 14.5027602 9.67746606 14.5302262 9.42909502 14.7542534 9.24986425 15.0022172 9.27742081 15.2505882 9.30488688 15.4296833 9.52850679 15.4022624 9.77687783 15.3951584 9.84126697 15.2183258 11.3766063 14.3782353 13.3861086 13.6027602 15.240905 12.089457 17.8645249 9.28361991 19.83 9.20466063 19.8853846 9.11411765 19.9119457 9.02443439 19.9119457z"/>
    <path d="M7.75556561,14.8786425 C7.66257919,14.8786425 7.56882353,14.8500452 7.4881448,14.7907692 C7.43597285,14.7523982 6.19484163,13.8313122 4.87479638,12.0987783 C3.65628959,10.4995928 2.14104072,7.87696833 1.84180995,4.46452489 C1.82,4.21556561 2.00411765,3.9960181 2.25307692,3.97420814 C2.5020362,3.95235294 2.72153846,4.13651584 2.74334842,4.38547511 C3.02253394,7.56945701 4.43778281,10.0257466 5.5759276,11.5257014 C6.81859729,13.1633484 8.01262443,14.0530769 8.02452489,14.0619005 C8.22542986,14.210181 8.26841629,14.4933484 8.12027149,14.6944344 C8.03158371,14.8148416 7.89447964,14.8786425 7.75556561,14.8786425 Z"/>
  </g>
</svg>
